Origami/64x64/apps/tresorit.svg

<svg width="64" height="64" version="1" xmlns="http://www.w3.org/2000/svg">
 <path d="m32.188473 5.0035627a6.3315059 6.3668138 0 0 0 -3.315803 0.849347l-18.630071 10.815981a6.3315059 6.3668138 0 0 0 -3.1660305 5.514387v21.633361a6.3315059 6.3668138 0 0 0 3.1657535 5.513827l18.63007 10.816542a6.3315059 6.3668138 0 0 0 6.331506 0l18.630071-10.816542a6.3315059 6.3668138 0 0 0 3.166031 -5.514387v-21.633361a6.3315059 6.3668138 0 0 0 -3.166031 -5.514387l-18.630071-10.815981a6.3315059 6.3668138 0 0 0 -3.016257 -0.849347z" style="opacity:.2"/>
 <path d="m32.188473 4.0036233a6.3315059 6.3668138 0 0 0 -3.315803 0.849347l-18.630071 10.815982a6.3315059 6.3668138 0 0 0 -3.1660305 5.514387v21.633362a6.3315059 6.3668138 0 0 0 3.1657535 5.513827l18.63007 10.816541a6.3315059 6.3668138 0 0 0 6.331506 0l18.630071-10.816541a6.3315059 6.3668138 0 0 0 3.166031 -5.514387v-21.633362a6.3315059 6.3668138 0 0 0 -3.166031 -5.514387l-18.630071-10.815982a6.3315059 6.3668138 0 0 0 -3.016257 -0.849347z" style="fill:#4f4f4f"/>
 <path d="m7.0765685 21.778565v21.038424c-6.916e-4 2.275117 1.2059455 4.377707 3.1652175 5.515458l18.63128 10.816078c0.962869 0.55684 2.016188 0.849166 3.126934 0.84763v-21.999332c-1.13868 0.0163-2.22237-0.276529-3.209439-0.84763l-18.631281-10.816078c-1.661411-0.969368-2.7953776-2.644747-3.0827115-4.55455z" style="fill:#ffffff;opacity:.1"/>
 <path d="m32.104226 4.0017609a6.3315059 6.3668138 0 0 0 -3.31523 0.8515366l-18.631279 10.816078a6.3315059 6.3668138 0 0 0 -3.1577169 5.277183 6.3315059 6.3668138 0 0 0 3.1577169 5.386556l18.631279 10.816078a6.3315059 6.3668138 0 0 0 6.330437 0l18.631279-10.816078a6.3315059 6.3668138 0 0 0 3.157718 -5.277184 6.3315059 6.3668138 0 0 0 -3.157718 -5.386555l-18.631279-10.816078a6.3315059 6.3668138 0 0 0 -3.015207 -0.8515366z" style="fill:#ffffff;opacity:.2"/>
 <path d="m40.502965 8.9281534-33.426396 19.481668v15.407606a6.3315059 6.3668138 0 0 0 0.046045 0.73005l47.234658-27.528622a6.3315059 6.3668138 0 0 0 -0.522752 -0.349986l-13.331555-7.7407156z" style="opacity:.2"/>
 <path d="m40.502965 7.928214-33.426396 19.481668v15.407607a6.3315059 6.3668138 0 0 0 0.046045 0.73005l47.234658-27.528623a6.3315059 6.3668138 0 0 0 -0.522752 -0.349986l-13.331555-7.740716z" style="fill:#00cbec"/>
 <path d="m9.5817406 25.950313-2.5051721 1.460893v15.405783a6.3315059 6.3668138 0 0 0 0.045003 0.730448l16.313622-9.507526-13.275913-7.706796a6.3315059 6.3668138 0 0 1 -0.5775394 -0.382802z" style="fill:#00a7c2"/>
 <path d="m32.187496 4.0019531a6.3315059 6.3668138 0 0 0 -3.315329 0.8515625l-18.629971 10.816406a6.3315059 6.3668138 0 0 0 -3.1653133 5.515625 6.3315059 6.3668138 0 0 1 3.0809303 -4.515625l18.631845-10.816406a6.3315059 6.3668138 0 0 1 3.31533 -0.8515625 6.3315059 6.3668138 0 0 1 3.015298 0.8515625l18.62997 10.816406a6.3315059 6.3668138 0 0 1 3.157814 5.386719 6.3315059 6.3668138 0 0 1 -0.0019 0.06055 6.3315059 6.3668138 0 0 1 0 2e-3 6.3315059 6.3668138 0 0 1 0.09376 1.0625v-2a6.3315059 6.3668138 0 0 0 -3.16529 -5.511769l-18.631846-10.816406a6.3315059 6.3668138 0 0 0 -3.015298 -0.8515625zm-25.110613 18.777344v0.40625a6.3315059 6.3668138 0 0 1 0.015002 -0.3125 6.3315059 6.3668138 0 0 1 -0.015002 -0.09375z" style="fill:#ffffff;opacity:.1"/>
</svg>

<svg xmlns="http://www.w3.org/2000/svg" width="64" height="64" version="1">
 <path style="opacity:0.2" d="M 32.188473,5.0035627 A 6.3315059,6.3668138 0 0 0 28.87267,5.8529097 L 10.242599,16.668891 a 6.3315059,6.3668138 0 0 0 -3.1660305,5.514387 l 0,21.633361 a 6.3315059,6.3668138 0 0 0 3.1657535,5.513827 l 18.63007,10.816542 a 6.3315059,6.3668138 0 0 0 6.331506,0 L 53.833969,49.330466 A 6.3315059,6.3668138 0 0 0 57,43.816079 L 57,22.182718 A 6.3315059,6.3668138 0 0 0 53.833969,16.668331 L 35.203898,5.8523497 a 6.3315059,6.3668138 0 0 0 -3.016257,-0.849347 z"/>
 <path style="fill:#4f4f4f" d="M 32.188473,4.0036233 A 6.3315059,6.3668138 0 0 0 28.87267,4.8529703 L 10.242599,15.668952 a 6.3315059,6.3668138 0 0 0 -3.1660305,5.514387 l 0,21.633362 a 6.3315059,6.3668138 0 0 0 3.1657535,5.513827 l 18.63007,10.816541 a 6.3315059,6.3668138 0 0 0 6.331506,0 L 53.833969,48.330528 A 6.3315059,6.3668138 0 0 0 57,42.816141 L 57,21.182779 A 6.3315059,6.3668138 0 0 0 53.833969,15.668392 L 35.203898,4.8524103 a 6.3315059,6.3668138 0 0 0 -3.016257,-0.849347 z"/>
 <path style="opacity:0.1;fill:#ffffff" d="m 7.0765685,21.778565 0,21.038424 c -6.916e-4,2.275117 1.2059455,4.377707 3.1652175,5.515458 l 18.63128,10.816078 c 0.962869,0.55684 2.016188,0.849166 3.126934,0.84763 l 0,-21.999332 c -1.13868,0.0163 -2.22237,-0.276529 -3.209439,-0.84763 L 10.15928,26.333115 C 8.497869,25.363747 7.3639024,23.688368 7.0765685,21.778565 Z"/>
 <path style="opacity:0.2;fill:#ffffff" d="m 32.104226,4.0017609 a 6.3315059,6.3668138 0 0 0 -3.31523,0.8515366 L 10.157717,15.669376 a 6.3315059,6.3668138 0 0 0 -3.1577169,5.277183 6.3315059,6.3668138 0 0 0 3.1577169,5.386556 l 18.631279,10.816078 a 6.3315059,6.3668138 0 0 0 6.330437,0 L 53.750712,26.333115 A 6.3315059,6.3668138 0 0 0 56.90843,21.055931 6.3315059,6.3668138 0 0 0 53.750712,15.669376 L 35.119433,4.8532975 A 6.3315059,6.3668138 0 0 0 32.104226,4.0017609 Z"/>
 <path style="opacity:0.2" d="M 40.502965,8.9281534 7.0765685,28.409821 l 0,15.407606 a 6.3315059,6.3668138 0 0 0 0.046045,0.73005 L 54.357272,17.018855 A 6.3315059,6.3668138 0 0 0 53.83452,16.668869 L 40.502965,8.9281534 Z"/>
 <path style="fill:#00cbec" d="m 40.502965,7.928214 -33.4263965,19.481668 0,15.407607 a 6.3315059,6.3668138 0 0 0 0.046045,0.73005 L 54.357272,16.018916 A 6.3315059,6.3668138 0 0 0 53.83452,15.66893 L 40.502965,7.928214 Z"/>
 <path style="fill:#00a7c2" d="m 9.5817406,25.950313 -2.5051721,1.460893 0,15.405783 a 6.3315059,6.3668138 0 0 0 0.045003,0.730448 L 23.435193,34.039911 10.15928,26.333115 A 6.3315059,6.3668138 0 0 1 9.5817406,25.950313 Z"/>
 <path style="opacity:0.1;fill:#ffffff" d="M 32.187496,4.0019531 A 6.3315059,6.3668138 0 0 0 28.872167,4.8535156 L 10.242196,15.669922 A 6.3315059,6.3668138 0 0 0 7.0768827,21.185547 6.3315059,6.3668138 0 0 1 10.157813,16.669922 L 28.789658,5.8535156 a 6.3315059,6.3668138 0 0 1 3.31533,-0.8515625 6.3315059,6.3668138 0 0 1 3.015298,0.8515625 l 18.62997,10.8164064 a 6.3315059,6.3668138 0 0 1 3.157814,5.386719 6.3315059,6.3668138 0 0 1 -0.0019,0.06055 6.3315059,6.3668138 0 0 1 0,0.002 6.3315059,6.3668138 0 0 1 0.09376,1.0625 l 0,-2 A 6.3315059,6.3668138 0 0 0 53.83464,15.669922 L 35.202794,4.8535156 A 6.3315059,6.3668138 0 0 0 32.187496,4.0019531 Z M 7.0768827,22.779297 l 0,0.40625 a 6.3315059,6.3668138 0 0 1 0.015002,-0.3125 6.3315059,6.3668138 0 0 1 -0.015002,-0.09375 z"/>
</svg>
